!!!OTL: Drei Schneider und ein Schleck (2-53) S. 169
!!!id: P0926
**kern
*clefG2
*k[f#]
*G:
{4d
=1
4d
8g
8g
4g
4b
=2
4b
8a
8a
4a
4cc
=3
2b}
4r
=4
{4d
=5
4d
8g
8g
4g
8b
8b
=6
4b
8a
8a
4a
4cc
=7
2b}
4r
=8
{4cc
=9
4b
8dd
8ee
4dd
8cc
8b
=10
8a
8a
8b
8b
4cc}
=11
{4a
=12
8g
8g
4b
8dd
8cc
4g
=13
4f#
4a
4a}
=14
{4dd
=15
4b
4b
8a
8b
4a
=16
2g}
4r
==
*-
!!!minrhy: 8
!!!meters: 4/4 ]  ZZ[5
!!!cut: Drei Schneider und ein Schleck (2-53) S. 169
!!!reg: Lothringen
!!!trd: PINCK, Louis: Verklingende Weisen, Bd 2, Metz 1928
!!!rhy1: X_  X_XXX_X_  X_XXX_X_  X__0_
!!!rhy2: X_  X_XXX_XX  X_XXX_X_  X__0_
!!!key: P0926  08  G 4/4 ]  ZZ[5
!!!mod: HEPTATONIK IONISCH]  AMBITUS[9
!!!kad: 33421
!!!akz: -51323_-51323_3524_15-72_321_
!!!fot: 'a__av_b__c__d__
!!!for: 'a__b__c__d__e__
!!!fok: '/__/__~__~__\__
!! PHRAS[AUFTAKTIG]
!!!fkt: Spottlied
!! LOTH VKL
!! PR[26] 2K[2] 2G[17] 3K[7] 3G[2] 4A[5] 4Ü[0] 5A[0] 6K[0] 6G[0]
!! 7K[0] 7G[0] 8A[0] MEHR[0] SI[33] ABS[42] SR[19] SP[14]
!! ST[8] 2k[10] 2g[21] 3k[2] 3g[5] 4d[0] 4ü[0] 5d[2] 6k[0] 6g[0]
!! 7k[0] 7g[0] 8d[0] mehr[0] si[40] dm[-7] sr[31] sp[10]
!! 1F[60] 2F[38] 3F[0] 4F[0] LF[0] 2P[2] 3P[0] 4P[0] TRI[0] DF[3] AB[45]
!! TF[0] U3K[0] U3[0] U4[0] U4Ü[0] U5[0] U6K[0] U6[0] U7K[0] U7[0]
!! N1[9] N2K[0] N2[9] N3K[0] N3[14] N4[14] N4Ü[0] N5[30] N6K[0] N6[16]
!!!n7k: 0] N7[5] O1[2] O2K[0] O2[0] O3K[0] O3[0] HÖ[0
